X:1
T:Let Someone Else
T:Let Someone Else
T:Beatrice W. Sutherland
T:James Alexander Sutherland, 1921
T:Public Domain Courtesy of the Cyber Hymnal™
T:Public Domain Courtesy of the Cyber Hymnal™
C:Beatrice W. Sutherland
Z:Public Domain
Z:Courtesy of the Cyber Hymnal™
%%score ( 1 2 ) ( 3 4 )
L:1/8
Q:1/4=113
M:6/8
K:D
V:1 treble 
V:2 treble 
V:3 bass 
V:4 bass 
V:1
 [FA] | [FB]2 [FB] [FA]2 [DF] | (EF)[CE] D2 [DA] | [DB]2 [DB] (dc)[DB] | [DA]3- [DA]2 [FA] | %5
w: 1.~“Let|some- one else!” you|oft- * en say, When|asked to serve * the|Lord; * And|
w: 2.~“Let|some- one else speak|forth * the word To|save a soul * from|sin”; * That|
w: 3.~“Let|some- one else go|forth,” * you say, To|lands be- yond * the|seas; * While|
w: 4.~Oh,|ne- ver let your|lips * a- gain Those|thought- less words * re-|peat; * But|
 [FB]2 [FB] [FA]2 [DF] | (EF)[CE] D2 [DF] | [DE]2 [DF] (!fermata!^G!fermata!c)[DB] | %8
w: “some- one else,” when|life * is o’er, Will|reap a rich * re-|
w: “some- one else,” when|Je- * sus comes, A|crown of life * will|
w: you re- main at|home * and take Your|com- fort and * your|
w: pray that grace to|you * be giv’n To|serve at Je- * sus’|
 [CA]3- [CA]2 ||"^Refrain" [GA] | [Fd]2 [Fd] [Fc]2 [FA] | [EG][EA][GB] [FA]2 [DF] | %12
w: ward. *|Oh,|some- one else is|doi- ng the work That|
w: win. *|Oh,|some- one else is|doi- ng the work That|
w: ease. *|Oh,|some- one else is|doi- ng the work That|
w: feet. *|Then|no one else will|d- o the work That|
 [DE]2 [DE] [CA]2 [CA] | [DF]3- [DF]2 [FA] | [Fd]2 [Fd] [Fc][FB][FA] | [EG][EA][GB] [FA]2 [DF] | %16
w: you for God should|do; * And|some- one else will be|wear- ing the crown That|
w: you for God should|do; * And|some- one else will be|wear- ing the crown That|
w: you for God should|do; * And|some- one else will be|wear- ing the crown That|
w: you for God should|do; * And|no one else will be|wear- ing the crown That|
 [DE]2 [DE] [CA]2 [CA] | D3- [A,D]7 |] %18
w: God had meant for|you. *|
w: God had meant for|you. *|
w: God had meant for|you. *|
w: God has kept for|you. *|
V:2
 x | x6 | C2 D2 x2 | x3 D2 x | x6 | x6 | C2 D2 x2 | x3 D2 x | x5 || x | x6 | x6 | x6 | x6 | x6 | %15
 x6 | x6 | D2 B, x7 |] %18
V:3
 [D,D] | [D,D]2 [D,D] [D,D]2 [D,A,] | (G,A,)[A,,G,] [D,F,]2 [D,F,] | G,2 G, (B,A,)G, | %4
 [D,F,]3- [D,F,]2 [D,A,] | [D,D]2 [D,D] [D,D]2 [D,A,] | (G,A,)[^A,,G,] [B,,F,]2 [B,,B,] | %7
 [E,^G,]2 [E,A,] !fermata![E,B,]2 [E,G,] | [A,,A,]3- [A,,A,]2 || [C,A,] | %10
 [D,A,]2 [D,A,] [F,A,]2 [F,C] | [G,B,][G,C][G,D] [D,D]2 [D,A,] | [G,B,]2 [G,B,] A,2 [A,,A,] | %13
 A,2 B, [D,A,]2 [D,A,] | [D,A,]2 [D,A,] [F,A,][F,D][F,C] | [G,B,][G,C][G,D] [D,D]2 [D,A,] | %16
 [G,B,]2 [G,B,] A,2 [A,,G,] | (F,2 G, [D,F,]7) |] %18
V:4
 x | x6 | A,,2 x4 | G,2 G, G,2 G, | x6 | x6 | ^A,,2 x4 | x6 | x5 || x | x6 | x6 | x3 A,2 x | %13
 D,3- x3 | x6 | x6 | x3 A,2 x | D,3- x7 |] %18

